32x32/apps/etr.svg

<svg xmlns="http://www.w3.org/2000/svg" width="32" height="32" version="1">
 <path style="opacity:0.2" d="M 30,17 A 14,14 0 0 1 16,31 14,14 0 0 1 2,17 14,14 0 0 1 16,3 14,14 0 0 1 30,17 Z"/>
 <path style="fill:#72a0d1;stroke:#000000;stroke-width:0;stroke-linecap:round;stroke-linejoin:round" d="m 24.538086,12.467672 -2.704297,1.585937 -1.270117,0.745117 A 1.40014,1.40014 0 0 1 18.830078,14.54443 C 17.833305,13.472378 15.544523,12.499117 12.85,12.499117 c -1.992671,0 -3.7776557,0.508189 -4.9642579,1.230469 C 6.6991399,14.451867 6.1999999,15.267527 6.2,15.999117 c -1e-7,0.731591 0.4991399,1.547252 1.6857421,2.269532 1.1866022,0.722279 2.9715869,1.230468 4.9642579,1.230468 2.694523,0 4.983306,-0.973261 5.980078,-2.045312 a 1.40014,1.40014 0 0 1 1.733594,-0.254297 l 1.270117,0.745117 2.704297,1.585938 c -0.02617,-0.06955 -0.02703,-0.05663 -0.05332,-0.128516 C 24.112967,18.385469 23.7,17.21084 23.7,15.999117 c 0,-1.211722 0.412945,-2.386658 0.784766,-3.402929 0.02631,-0.07191 0.02713,-0.05895 0.05332,-0.128516 z"/>
 <path style="fill:#d76337" d="M 30,16 A 14,14 0 0 1 16,30 14,14 0 0 1 2,16 14,14 0 0 1 16,2 14,14 0 0 1 30,16 Z"/>
 <path style="opacity:0.2" d="m 26.198557,11.000466 c -0.168288,0.0053 -0.331753,0.05346 -0.477482,0.139144 l -4.231435,2.582267 -1.360681,0.798246 C 18.648124,12.927449 15.845083,12 12.623984,12 7.8610898,12 3.9999999,14.100608 4,16.999759 3.9999999,19.898912 7.8610898,22 12.623984,22 c 3.221099,0 6.024139,-0.928449 7.504975,-2.521123 l 1.360681,0.798246 4.231435,2.582786 c 0.678547,0.397823 1.325981,-0.0989 1.325925,-0.894914 0,0 -1.047,-3.236449 -1.047,-4.965236 0,-1.728785 1.047,-4.96377 1.047,-4.96377 3.82e-4,-0.583469 -0.274466,-1.052876 -0.848443,-1.035523 z"/>
 <path style="fill:#142f56" d="M 26.199219 10 C 26.030931 10.0053 25.866432 10.05299 25.720703 10.138672 L 21.490234 12.722656 L 20.128906 13.519531 C 18.648071 11.926857 15.844146 11 12.623047 11 C 7.8601526 11 3.9999999 13.100849 4 16 C 3.9999999 18.899153 7.8601526 21 12.623047 21 C 15.844146 21 18.64807 20.07119 20.128906 18.478516 L 21.490234 19.277344 L 25.720703 21.859375 C 26.39925 22.257198 27.046931 21.760855 27.046875 20.964844 C 27.046875 20.964844 26 17.728787 26 16 C 26 14.271215 27.046875 11.035156 27.046875 11.035156 C 27.047257 10.451687 26.773196 9.9826468 26.199219 10 z"/>
 <path style="fill:#8dc6ff" d="M 12.623047 13 C 10.535624 13 8.6809437 13.486553 7.5136719 14.150391 C 6.3464 14.814228 6 15.438291 6 16 C 6 16.56171 6.34834 17.183721 7.515625 17.847656 C 8.68291 18.511591 10.535691 19 12.623047 19 C 15.459826 19 17.7763 18.072002 18.664062 17.117188 A 2.0002 2.0002 0 0 1 21.140625 16.753906 L 22.501953 17.552734 A 2.0002 2.0002 0 0 1 22.53125 17.570312 L 24.441406 18.736328 C 24.235834 17.85583 24 16.957209 24 16 C 24 15.042791 24.235817 14.143964 24.441406 13.263672 L 22.53125 14.429688 A 2.0002 2.0002 0 0 1 22.501953 14.447266 L 21.140625 15.246094 A 2.0002 2.0002 0 0 1 18.664062 14.882812 C 17.776582 13.928306 15.46024 13 12.623047 13 z M 5.4726562 13.144531 C 5.3172682 13.277202 5.1740669 13.414184 5.0410156 13.556641 C 5.1737522 13.414577 5.3177045 13.27686 5.4726562 13.144531 z"/>
 <path style="fill:#f4f4f7;opacity:0.2" d="M 16 2 A 14 14 0 0 0 2 16 A 14 14 0 0 0 2.0214844 16.585938 A 14 14 0 0 1 16 3 A 14 14 0 0 1 29.978516 16.414062 A 14 14 0 0 0 30 16 A 14 14 0 0 0 16 2 z"/>
</svg>

<svg xmlns="http://www.w3.org/2000/svg" width="32" height="32" version="1"><path style="opacity:.2" d="M30 17a14 14 0 0 1-14 14A14 14 0 0 1 2 17 14 14 0 0 1 16 3a14 14 0 0 1 14 14z"/><path style="fill:#72a0d1;stroke:#000;stroke-width:0;stroke-linecap:round;stroke-linejoin:round" d="m24.538 12.468-2.704 1.586-1.27.745a1.4 1.4 0 0 1-1.734-.255c-.997-1.072-3.285-2.045-5.98-2.045-1.993 0-3.778.508-4.964 1.23C6.699 14.453 6.2 15.269 6.2 16c0 .732.5 1.547 1.686 2.27 1.186.722 2.971 1.23 4.964 1.23 2.695 0 4.983-.973 5.98-2.045a1.4 1.4 0 0 1 1.734-.254l1.27.745 2.704 1.586c-.026-.07-.027-.057-.053-.129-.372-1.017-.785-2.191-.785-3.403 0-1.212.413-2.387.785-3.403.026-.072.027-.059.053-.128z"/><path style="fill:#d76337" d="M30 16a14 14 0 0 1-14 14A14 14 0 0 1 2 16 14 14 0 0 1 16 2a14 14 0 0 1 14 14z"/><path style="opacity:.2" d="M26.199 11a1.003 1.003 0 0 0-.478.14l-4.231 2.582-1.361.798c-1.48-1.593-4.284-2.52-7.505-2.52C7.861 12 4 14.1 4 17c0 2.899 3.861 5 8.624 5 3.221 0 6.024-.928 7.505-2.521l1.36.798 4.232 2.583c.679.398 1.326-.099 1.326-.895 0 0-1.047-3.236-1.047-4.965 0-1.729 1.047-4.964 1.047-4.964 0-.583-.274-1.053-.848-1.036z"/><path style="fill:#142f56" d="M26.2 10a1.007 1.007 0 0 0-.48.139l-4.23 2.584-1.361.797c-1.48-1.593-4.285-2.52-7.506-2.52C7.86 11 4 13.1 4 16s3.86 5 8.623 5c3.221 0 6.025-.929 7.506-2.521l1.361.798 4.23 2.582c.68.398 1.327-.098 1.327-.894 0 0-1.047-3.236-1.047-4.965 0-1.729 1.047-4.965 1.047-4.965 0-.583-.274-1.052-.848-1.035z"/><path style="fill:#8dc6ff" d="M12.623 13c-2.087 0-3.942.487-5.11 1.15C6.347 14.814 6 15.438 6 16s.348 1.184 1.516 1.848c1.167.664 3.02 1.152 5.107 1.152 2.837 0 5.153-.928 6.041-1.883a2 2 0 0 1 2.477-.363l1.361.799a2 2 0 0 1 .03.017l1.91 1.166C24.235 17.856 24 16.957 24 16c0-.957.236-1.856.441-2.736l-1.91 1.166a2 2 0 0 1-.029.017l-1.361.8a2 2 0 0 1-2.477-.364C17.777 13.928 15.46 13 12.623 13zm-7.15.145z"/><path style="fill:#f4f4f7;opacity:.2" d="M16 2A14 14 0 0 0 2 16a14 14 0 0 0 .021.586A14 14 0 0 1 16 3a14 14 0 0 1 13.979 13.414A14 14 0 0 0 30 16 14 14 0 0 0 16 2z"/></svg>
